Newaita-dark/apps/64/com.github.arshubham.cipher.svg

<svg height="64pt" viewBox="0 0 64 64" width="64pt" xmlns="http://www.w3.org/2000/svg" xmlns:xlink="http://www.w3.org/1999/xlink"><linearGradient id="a"><stop offset="0" stop-opacity=".313725"/><stop offset=".222222" stop-opacity=".27451"/><stop offset="1" stop-opacity="0"/></linearGradient><radialGradient id="b" cx="450.90894" cy="189.57936" gradientTransform="matrix(.00000035 -.156265 -.281277 -.0000002 97.646083 127.190666)" gradientUnits="userSpaceOnUse" r="21.166656" xlink:href="#a"/><radialGradient id="c" cx="450.90894" cy="189.57936" gradientTransform="matrix(-.00000035 .156265 .281277 .0000002 -34.140016 -15.05496)" gradientUnits="userSpaceOnUse" r="21.166656" xlink:href="#a"/><radialGradient id="d" cx="450.90894" cy="189.57936" gradientTransform="matrix(-.00000035 -.156265 .281277 -.0000002 -34.140016 127.190666)" gradientUnits="userSpaceOnUse" r="21.166656" xlink:href="#a"/><radialGradient id="e" cx="450.90894" cy="189.57936" gradientTransform="matrix(.00000035 .156265 -.281277 .0000002 97.64608 -15.054962)" gradientUnits="userSpaceOnUse" r="21.166656" xlink:href="#a"/><linearGradient id="f" gradientTransform="matrix(.534402 0 0 .0998973 -104.69199 33.273418)" gradientUnits="userSpaceOnUse" x1="255.32297" x2="255.32304" y1="228.17859" y2="254.66666"><stop offset="0" stop-opacity=".27451"/><stop offset="1" stop-opacity="0"/></linearGradient><linearGradient id="g" gradientUnits="userSpaceOnUse" x1="31.753048" x2="31.753048" y1="56.067868" y2="29.60699475001"><stop offset="0" stop-color="#26a69a"/><stop offset="1" stop-color="#4db6ac"/></linearGradient><linearGradient id="h" gradientUnits="userSpaceOnUse" x1="31.753056" x2="31.753056" y1="56.06789909502" y2="5.79222444893"><stop offset="0" stop-color="#bdbdbd"/><stop offset="1" stop-color="#eee"/></linearGradient><linearGradient id="i"><stop offset="0" stop-color="#26a69a"/><stop offset=".510345" stop-color="#4db6ac"/><stop offset="1" stop-color="#26a69a"/></linearGradient><linearGradient id="j" gradientUnits="userSpaceOnUse" x1="125.5" x2="181.41667" xlink:href="#i" y1="127.66667" y2="127.66667"/><linearGradient id="k" gradientUnits="userSpaceOnUse" x1="326.58334" x2="382.49994" xlink:href="#i" y1="127.66667" y2="127.66667"/><path d="m44.984375 56.066406h5.292969v-2.644531h-5.292969zm0 0" fill="url(#b)"/><path d="m18.523438 56.066406h-5.292969v2.648438h5.292969zm0 0" fill="url(#c)"/><path d="m18.523438 56.066406h-5.292969v-2.644531h5.292969zm0 0" fill="url(#d)"/><path d="m44.984375 56.066406h5.292969v2.648438h-5.292969zm0 0" fill="url(#e)"/><path d="m18.523438 56.070312h26.460937v2.644532h-26.460937zm0 0" fill="url(#f)"/><path d="m15.875 29.605469h31.753906c1.460938 0 2.648438 1.1875 2.648438 2.648437v21.167969c0 1.460937-1.1875 2.644531-2.648438 2.644531h-31.753906c-1.460938 0-2.644531-1.183594-2.644531-2.644531v-21.167969c0-1.460937 1.183593-2.648437 2.644531-2.648437zm0 0" fill="url(#g)"/><path d="m31.753906 5.792969c-8.0625 0-14.554687 6.488281-14.554687 14.550781v9.261719h3.96875v-9.261719c0-5.863281 4.722656-10.582031 10.585937-10.582031 5.863282 0 10.582032 4.71875 10.582032 10.582031v9.261719h3.96875v-9.261719c0-8.0625-6.488282-14.550781-14.550782-14.550781zm0 0" fill="url(#h)"/><path d="m31.753906 5.792969c-8.0625 0-14.554687 6.488281-14.554687 14.550781v9.261719h3.96875v-9.261719c0-5.863281 4.722656-10.582031 10.585937-10.582031 5.863282 0 10.582032 4.71875 10.582032 10.582031v9.261719h3.96875v-9.261719c0-8.0625-6.488282-14.550781-14.550782-14.550781zm0 0" fill="#cfcfcf"/><path d="m31.753906 5.792969c-8.0625 0-14.554687 6.488281-14.554687 14.550781v.664062c0-8.0625 6.492187-14.554687 14.554687-14.554687s14.550782 6.492187 14.550782 14.554687v-.664062c0-8.0625-6.488282-14.550781-14.550782-14.550781zm0 0" fill="#fff" fill-opacity=".784314"/><path d="m31.753906 9.101562c-5.863281 0-10.585937 4.71875-10.585937 10.582032v.660156c0-5.863281 4.722656-10.582031 10.585937-10.582031 5.863282 0 10.582032 4.71875 10.582032 10.582031v-.660156c0-5.863282-4.71875-10.582032-10.582032-10.582032zm-14.554687 19.84375v.660157h3.96875v-.660157zm25.136719 0v.660157h3.96875v-.660157zm0 0" fill-opacity=".235294"/><g stroke="#212121" stroke-linecap="round" stroke-linejoin="round"><path d="m960.026444 175.140757c-243.756253 0-440.036724 196.162373-440.036724 439.918626v280.012633h119.988543v-280.012633c0-177.266539 142.781643-319.930082 320.048181-319.930082 177.266539 0 319.930083 142.663543 319.930083 319.930082v280.012633h119.988543v-280.012633c0-243.756253-196.162373-439.918626-439.918626-439.918626zm0 0" fill="none" stroke-width="11.338583" transform="scale(.0330761)"/><path d="m126.987873 21.821135h52.932445v211.667286h-52.932445zm0 0" fill="none" stroke-width="3" transform="matrix(.125012 0 0 .125012 0 26.877566)"/><path d="m126.987873 21.821135h52.932445v211.667286h-52.932445zm0 0" fill="url(#j)" stroke-width="3" transform="matrix(.125012 0 0 .125012 0 26.877566)"/><path d="m328.093669 21.821135h52.901198v211.667286h-52.901198zm0 0" fill="none" stroke-width="3" transform="matrix(.125012 0 0 .125012 0 26.877566)"/><path d="m328.093669 21.821135h52.901198v211.667286h-52.901198zm0 0" fill="url(#k)" stroke-width="3" transform="matrix(.125012 0 0 .125012 0 26.877566)"/></g><path d="m15.875 56.066406c-1.464844 0-2.644531-1.179687-2.644531-2.644531v-1.324219c0 1.46875 1.179687 2.648438 2.644531 2.648438h31.753906c1.464844 0 2.648438-1.179688 2.648438-2.648438v1.324219c0 1.464844-1.183594 2.644531-2.648438 2.644531zm0 0" fill-opacity=".235294"/><path d="m15.875 29.605469c-1.464844 0-2.644531 1.183593-2.644531 2.648437v1.320313c0-1.464844 1.179687-2.644531 2.644531-2.644531h31.753906c1.464844 0 2.648438 1.179687 2.648438 2.644531v-1.320313c0-1.464844-1.183594-2.648437-2.648438-2.648437zm0 0" fill="#fff" fill-opacity=".392157"/><path d="m15.875 29.417969c-1.566406 0-2.832031 1.269531-2.832031 2.835937v21.167969c0 1.566406 1.265625 2.832031 2.832031 2.832031h31.753906c1.566406 0 2.835938-1.265625 2.835938-2.832031v-21.167969c0-1.566406-1.269532-2.835937-2.835938-2.835937zm0 .375h31.753906c1.367188 0 2.460938 1.09375 2.460938 2.460937v21.167969c0 1.367187-1.09375 2.457031-2.460938 2.457031h-31.753906c-1.363281 0-2.457031-1.089844-2.457031-2.457031v-21.167969c0-1.367187 1.09375-2.460937 2.457031-2.460937zm0 0" fill="#212121"/></svg>

<?xml version="1.0" encoding="UTF-8"?>
<svg xmlns="http://www.w3.org/2000/svg" xmlns:xlink="http://www.w3.org/1999/xlink" width="64pt" height="64pt" viewBox="0 0 64 64" version="1.1">
<defs>
<radialGradient id="radial0" gradientUnits="userSpaceOnUse" cx="450.90894" cy="189.57936" fx="450.90894" fy="189.57936" r="21.166656" gradientTransform="matrix(0.000000348341,-0.156265,-0.281277,-0.000000203077,97.646083,127.190666)">
<stop offset="0" style="stop-color:rgb(0%,0%,0%);stop-opacity:0.313725;"/>
<stop offset="0.222222" style="stop-color:rgb(0%,0%,0%);stop-opacity:0.27451;"/>
<stop offset="1" style="stop-color:rgb(0%,0%,0%);stop-opacity:0;"/>
</radialGradient>
<radialGradient id="radial1" gradientUnits="userSpaceOnUse" cx="450.90894" cy="189.57936" fx="450.90894" fy="189.57936" r="21.166656" gradientTransform="matrix(-0.000000348341,0.156265,0.281277,0.000000203077,-34.140016,-15.05496)">
<stop offset="0" style="stop-color:rgb(0%,0%,0%);stop-opacity:0.313725;"/>
<stop offset="0.222222" style="stop-color:rgb(0%,0%,0%);stop-opacity:0.27451;"/>
<stop offset="1" style="stop-color:rgb(0%,0%,0%);stop-opacity:0;"/>
</radialGradient>
<radialGradient id="radial2" gradientUnits="userSpaceOnUse" cx="450.90894" cy="189.57936" fx="450.90894" fy="189.57936" r="21.166656" gradientTransform="matrix(-0.000000348341,-0.156265,0.281277,-0.000000203077,-34.140016,127.190666)">
<stop offset="0" style="stop-color:rgb(0%,0%,0%);stop-opacity:0.313725;"/>
<stop offset="0.222222" style="stop-color:rgb(0%,0%,0%);stop-opacity:0.27451;"/>
<stop offset="1" style="stop-color:rgb(0%,0%,0%);stop-opacity:0;"/>
</radialGradient>
<radialGradient id="radial3" gradientUnits="userSpaceOnUse" cx="450.90894" cy="189.57936" fx="450.90894" fy="189.57936" r="21.166656" gradientTransform="matrix(0.000000348341,0.156265,-0.281277,0.000000203077,97.64608,-15.054962)">
<stop offset="0" style="stop-color:rgb(0%,0%,0%);stop-opacity:0.313725;"/>
<stop offset="0.222222" style="stop-color:rgb(0%,0%,0%);stop-opacity:0.27451;"/>
<stop offset="1" style="stop-color:rgb(0%,0%,0%);stop-opacity:0;"/>
</radialGradient>
<linearGradient id="linear0" gradientUnits="userSpaceOnUse" x1="255.32297" y1="228.17859" x2="255.32304" y2="254.66666" gradientTransform="matrix(0.534402,0,0,0.0998973,-104.69199,33.273418)">
<stop offset="0" style="stop-color:rgb(0%,0%,0%);stop-opacity:0.27451;"/>
<stop offset="1" style="stop-color:rgb(0%,0%,0%);stop-opacity:0;"/>
</linearGradient>
<linearGradient id="linear1" gradientUnits="userSpaceOnUse" x1="254" y1="233.5" x2="254" y2="21.833334" gradientTransform="matrix(0.125012,0,0,0.125012,0,26.877566)">
<stop offset="0" style="stop-color:rgb(14.901961%,65.098039%,60.392157%);stop-opacity:1;"/>
<stop offset="1" style="stop-color:rgb(30.196078%,71.372549%,67.45098%);stop-opacity:1;"/>
</linearGradient>
<linearGradient id="linear2" gradientUnits="userSpaceOnUse" x1="960" y1="1695.1182" x2="960" y2="175.11812" gradientTransform="matrix(0.0330761,0,0,0.0330761,0,0)">
<stop offset="0" style="stop-color:rgb(74.117647%,74.117647%,74.117647%);stop-opacity:1;"/>
<stop offset="1" style="stop-color:rgb(93.333333%,93.333333%,93.333333%);stop-opacity:1;"/>
</linearGradient>
<linearGradient id="linear3" gradientUnits="userSpaceOnUse" x1="125.5" y1="127.66667" x2="181.41667" y2="127.66667" >
<stop offset="0" style="stop-color:rgb(14.901961%,65.098039%,60.392157%);stop-opacity:1;"/>
<stop offset="0.510345" style="stop-color:rgb(30.196078%,71.372549%,67.45098%);stop-opacity:1;"/>
<stop offset="1" style="stop-color:rgb(14.901961%,65.098039%,60.392157%);stop-opacity:1;"/>
</linearGradient>
<linearGradient id="linear4" gradientUnits="userSpaceOnUse" x1="326.58334" y1="127.66667" x2="382.49994" y2="127.66667" >
<stop offset="0" style="stop-color:rgb(14.901961%,65.098039%,60.392157%);stop-opacity:1;"/>
<stop offset="0.510345" style="stop-color:rgb(30.196078%,71.372549%,67.45098%);stop-opacity:1;"/>
<stop offset="1" style="stop-color:rgb(14.901961%,65.098039%,60.392157%);stop-opacity:1;"/>
</linearGradient>
</defs>
<g id="surface1">
<path style=" stroke:none;fill-rule:nonzero;fill:url(#radial0);" d="M 44.984375 56.066406 L 50.277344 56.066406 L 50.277344 53.421875 L 44.984375 53.421875 Z M 44.984375 56.066406 "/>
<path style=" stroke:none;fill-rule:nonzero;fill:url(#radial1);" d="M 18.523438 56.066406 L 13.230469 56.066406 L 13.230469 58.714844 L 18.523438 58.714844 Z M 18.523438 56.066406 "/>
<path style=" stroke:none;fill-rule:nonzero;fill:url(#radial2);" d="M 18.523438 56.066406 L 13.230469 56.066406 L 13.230469 53.421875 L 18.523438 53.421875 Z M 18.523438 56.066406 "/>
<path style=" stroke:none;fill-rule:nonzero;fill:url(#radial3);" d="M 44.984375 56.066406 L 50.277344 56.066406 L 50.277344 58.714844 L 44.984375 58.714844 Z M 44.984375 56.066406 "/>
<path style=" stroke:none;fill-rule:nonzero;fill:url(#linear0);" d="M 18.523438 56.070312 L 44.984375 56.070312 L 44.984375 58.714844 L 18.523438 58.714844 Z M 18.523438 56.070312 "/>
<path style=" stroke:none;fill-rule:nonzero;fill:url(#linear1);" d="M 15.875 29.605469 L 47.628906 29.605469 C 49.089844 29.605469 50.277344 30.792969 50.277344 32.253906 L 50.277344 53.421875 C 50.277344 54.882812 49.089844 56.066406 47.628906 56.066406 L 15.875 56.066406 C 14.414062 56.066406 13.230469 54.882812 13.230469 53.421875 L 13.230469 32.253906 C 13.230469 30.792969 14.414062 29.605469 15.875 29.605469 Z M 15.875 29.605469 "/>
<path style=" stroke:none;fill-rule:nonzero;fill:url(#linear2);" d="M 31.753906 5.792969 C 23.691406 5.792969 17.199219 12.28125 17.199219 20.34375 L 17.199219 29.605469 L 21.167969 29.605469 L 21.167969 20.34375 C 21.167969 14.480469 25.890625 9.761719 31.753906 9.761719 C 37.617188 9.761719 42.335938 14.480469 42.335938 20.34375 L 42.335938 29.605469 L 46.304688 29.605469 L 46.304688 20.34375 C 46.304688 12.28125 39.816406 5.792969 31.753906 5.792969 Z M 31.753906 5.792969 "/>
<path style=" stroke:none;fill-rule:nonzero;fill:rgb(81.176471%,81.176471%,81.176471%);fill-opacity:1;" d="M 31.753906 5.792969 C 23.691406 5.792969 17.199219 12.28125 17.199219 20.34375 L 17.199219 29.605469 L 21.167969 29.605469 L 21.167969 20.34375 C 21.167969 14.480469 25.890625 9.761719 31.753906 9.761719 C 37.617188 9.761719 42.335938 14.480469 42.335938 20.34375 L 42.335938 29.605469 L 46.304688 29.605469 L 46.304688 20.34375 C 46.304688 12.28125 39.816406 5.792969 31.753906 5.792969 Z M 31.753906 5.792969 "/>
<path style=" stroke:none;fill-rule:nonzero;fill:rgb(100%,100%,100%);fill-opacity:0.784314;" d="M 31.753906 5.792969 C 23.691406 5.792969 17.199219 12.28125 17.199219 20.34375 L 17.199219 21.007812 C 17.199219 12.945312 23.691406 6.453125 31.753906 6.453125 C 39.816406 6.453125 46.304688 12.945312 46.304688 21.007812 L 46.304688 20.34375 C 46.304688 12.28125 39.816406 5.792969 31.753906 5.792969 Z M 31.753906 5.792969 "/>
<path style=" stroke:none;fill-rule:nonzero;fill:rgb(0%,0%,0%);fill-opacity:0.235294;" d="M 31.753906 9.101562 C 25.890625 9.101562 21.167969 13.820312 21.167969 19.683594 L 21.167969 20.34375 C 21.167969 14.480469 25.890625 9.761719 31.753906 9.761719 C 37.617188 9.761719 42.335938 14.480469 42.335938 20.34375 L 42.335938 19.683594 C 42.335938 13.820312 37.617188 9.101562 31.753906 9.101562 Z M 17.199219 28.945312 L 17.199219 29.605469 L 21.167969 29.605469 L 21.167969 28.945312 Z M 42.335938 28.945312 L 42.335938 29.605469 L 46.304688 29.605469 L 46.304688 28.945312 Z M 42.335938 28.945312 "/>
<path style="fill:none;stroke-width:11.338583;stroke-linecap:round;stroke-linejoin:round;stroke:rgb(12.941176%,12.941176%,12.941176%);stroke-opacity:1;stroke-miterlimit:4;" d="M 960.026444 175.140757 C 716.270191 175.140757 519.98972 371.30313 519.98972 615.059383 L 519.98972 895.072016 L 639.978263 895.072016 L 639.978263 615.059383 C 639.978263 437.792844 782.759906 295.129301 960.026444 295.129301 C 1137.292983 295.129301 1279.956527 437.792844 1279.956527 615.059383 L 1279.956527 895.072016 L 1399.94507 895.072016 L 1399.94507 615.059383 C 1399.94507 371.30313 1203.782697 175.140757 960.026444 175.140757 Z M 960.026444 175.140757 " transform="matrix(0.0330761,0,0,0.0330761,0,0)"/>
<path style="fill:none;stroke-width:3;stroke-linecap:round;stroke-linejoin:round;stroke:rgb(12.941176%,12.941176%,12.941176%);stroke-opacity:1;stroke-miterlimit:4;" d="M 126.987873 21.821135 L 179.920318 21.821135 L 179.920318 233.488421 L 126.987873 233.488421 Z M 126.987873 21.821135 " transform="matrix(0.125012,0,0,0.125012,0,26.877566)"/>
<path style="fill-rule:nonzero;fill:url(#linear3);stroke-width:3;stroke-linecap:round;stroke-linejoin:round;stroke:rgb(12.941176%,12.941176%,12.941176%);stroke-opacity:1;stroke-miterlimit:4;" d="M 126.987873 21.821135 L 179.920318 21.821135 L 179.920318 233.488421 L 126.987873 233.488421 Z M 126.987873 21.821135 " transform="matrix(0.125012,0,0,0.125012,0,26.877566)"/>
<path style="fill:none;stroke-width:3;stroke-linecap:round;stroke-linejoin:round;stroke:rgb(12.941176%,12.941176%,12.941176%);stroke-opacity:1;stroke-miterlimit:4;" d="M 328.093669 21.821135 L 380.994867 21.821135 L 380.994867 233.488421 L 328.093669 233.488421 Z M 328.093669 21.821135 " transform="matrix(0.125012,0,0,0.125012,0,26.877566)"/>
<path style="fill-rule:nonzero;fill:url(#linear4);stroke-width:3;stroke-linecap:round;stroke-linejoin:round;stroke:rgb(12.941176%,12.941176%,12.941176%);stroke-opacity:1;stroke-miterlimit:4;" d="M 328.093669 21.821135 L 380.994867 21.821135 L 380.994867 233.488421 L 328.093669 233.488421 Z M 328.093669 21.821135 " transform="matrix(0.125012,0,0,0.125012,0,26.877566)"/>
<path style=" stroke:none;fill-rule:nonzero;fill:rgb(0%,0%,0%);fill-opacity:0.235294;" d="M 15.875 56.066406 C 14.410156 56.066406 13.230469 54.886719 13.230469 53.421875 L 13.230469 52.097656 C 13.230469 53.566406 14.410156 54.746094 15.875 54.746094 L 47.628906 54.746094 C 49.09375 54.746094 50.277344 53.566406 50.277344 52.097656 L 50.277344 53.421875 C 50.277344 54.886719 49.09375 56.066406 47.628906 56.066406 Z M 15.875 56.066406 "/>
<path style=" stroke:none;fill-rule:nonzero;fill:rgb(100%,100%,100%);fill-opacity:0.392157;" d="M 15.875 29.605469 C 14.410156 29.605469 13.230469 30.789062 13.230469 32.253906 L 13.230469 33.574219 C 13.230469 32.109375 14.410156 30.929688 15.875 30.929688 L 47.628906 30.929688 C 49.09375 30.929688 50.277344 32.109375 50.277344 33.574219 L 50.277344 32.253906 C 50.277344 30.789062 49.09375 29.605469 47.628906 29.605469 Z M 15.875 29.605469 "/>
<path style=" stroke:none;fill-rule:nonzero;fill:rgb(12.941176%,12.941176%,12.941176%);fill-opacity:1;" d="M 15.875 29.417969 C 14.308594 29.417969 13.042969 30.6875 13.042969 32.253906 L 13.042969 53.421875 C 13.042969 54.988281 14.308594 56.253906 15.875 56.253906 L 47.628906 56.253906 C 49.195312 56.253906 50.464844 54.988281 50.464844 53.421875 L 50.464844 32.253906 C 50.464844 30.6875 49.195312 29.417969 47.628906 29.417969 Z M 15.875 29.792969 L 47.628906 29.792969 C 48.996094 29.792969 50.089844 30.886719 50.089844 32.253906 L 50.089844 53.421875 C 50.089844 54.789062 48.996094 55.878906 47.628906 55.878906 L 15.875 55.878906 C 14.511719 55.878906 13.417969 54.789062 13.417969 53.421875 L 13.417969 32.253906 C 13.417969 30.886719 14.511719 29.792969 15.875 29.792969 Z M 15.875 29.792969 "/>
</g>
</svg>
